web/themes/custom/uswds_wioa/images/svg/icon-search.svg

<?xml version="1.0" encoding="UTF-8"?>
<svg width="16px" height="16px" viewBox="0 0 16 16" version="1.1" xmlns="http://www.w3.org/2000/svg" xmlns:xlink="http://www.w3.org/1999/xlink">
    <!-- Generator: Sketch 52.3 (67297) - http://www.bohemiancoding.com/sketch -->
    <title>Fill 200 Copy</title>
    <desc>Created with Sketch.</desc>
    <g id="Symbols" stroke="none" stroke-width="1" fill="none" fill-rule="evenodd">
        <g id="UI-element-/-Icons-/-Search---blue" fill="#0071BC">
            <path d="M9.67858824,9.67858824 C10.5595294,8.79870588 11,7.73882353 11,6.5 C11,5.26117647 10.5595294,4.20129412 9.67858824,3.32035294 C8.79870588,2.44047059 7.73882353,2 6.5,2 C5.26117647,2 4.20129412,2.44047059 3.32035294,3.32035294 C2.44047059,4.20129412 2,5.26117647 2,6.5 C2,7.73882353 2.44047059,8.79870588 3.32035294,9.67858824 C4.20129412,10.5595294 5.26117647,11 6.5,11 C7.73882353,11 8.79870588,10.5595294 9.67858824,9.67858824 L9.67858824,9.67858824 Z M15.6442417,13.9048464 C15.8814139,14.1420336 16,14.4309154 16,14.7704783 C16,15.1039595 15.8783732,15.3918277 15.6341062,15.6350966 C15.3908527,15.8783655 15.1030027,16 14.7695426,16 C14.4229064,16 14.1350564,15.8783655 13.9039655,15.6350966 L10.6058533,12.3469116 C9.45850754,13.1415901 8.18041302,13.5389294 6.76954263,13.5389294 C5.85328772,13.5389294 4.97656151,13.3615458 4.13936399,13.0047513 C3.30318003,12.6499842 2.58152794,12.1685144 1.97643482,11.563383 C1.37032814,10.9572379 0.889902445,10.2365537 0.534144178,9.39930314 C0.178385912,8.5630662 0,7.68628445 0,6.76997149 C0,5.85365854 0.178385912,4.97687678 0.534144178,4.13962623 C0.889902445,3.30338929 1.37032814,2.58169148 1.97643482,1.97656003 C2.58152794,1.37041495 3.30318003,0.888945201 4.13936399,0.534178017 C4.97656151,0.177383592 5.85328772,0 6.76954263,0 C7.68579754,0 8.56353731,0.177383592 9.39972127,0.534178017 C10.2359052,0.888945201 10.9565438,1.37041495 11.5626504,1.97656003 C12.1677436,2.58169148 12.6491828,3.30338929 13.0049411,4.13962623 C13.3606994,4.97687678 13.5390853,5.85365854 13.5390853,6.76997149 C13.5390853,8.17991764 13.1407576,9.45809313 12.3461295,10.6065252 L15.6442417,13.9048464 Z" id="Fill-200-Copy"></path>
        </g>
    </g>
</svg>

<svg width="16" height="16" xmlns="http://www.w3.org/2000/svg"><path d="M9.679 9.679C10.559 8.799 11 7.739 11 6.5c0-1.239-.44-2.299-1.321-3.18C8.799 2.44 7.739 2 6.5 2c-1.239 0-2.299.44-3.18 1.32C2.44 4.201 2 5.261 2 6.5s.44 2.299 1.32 3.179C4.201 10.559 5.261 11 6.5 11s2.299-.44 3.179-1.321zm5.965 4.226c.237.237.356.526.356.865 0 .334-.122.622-.366.865a1.181 1.181 0 0 1-.864.365c-.347 0-.635-.122-.866-.365l-3.298-3.288a6.583 6.583 0 0 1-3.836 1.192 6.64 6.64 0 0 1-2.63-.534 6.754 6.754 0 0 1-2.164-1.442A6.762 6.762 0 0 1 .534 9.4 6.65 6.65 0 0 1 0 6.77c0-.916.178-1.793.534-2.63a6.757 6.757 0 0 1 1.442-2.163A6.74 6.74 0 0 1 4.14.534 6.64 6.64 0 0 1 6.77 0c.917 0 1.795.177 2.63.534a6.751 6.751 0 0 1 2.164 1.443 6.774 6.774 0 0 1 1.442 2.163c.356.837.534 1.714.534 2.63a6.59 6.59 0 0 1-1.193 3.837l3.298 3.298z" fill="#0071BC" fill-rule="evenodd"/></svg>
